material/.icons/material/pipe-wrench.svg

<svg xmlns="http://www.w3.org/2000/svg" viewBox="0 0 24 24"><path d="M16.17 5.63l-2.11 2.15-2.15-2.15 4.26-4.22 3.52 3.51c1.17 1.17 1.17 3.08 0 4.27l-3.52-3.56M4.83 12.7L7 14.81l3.5-3.51-2.11-2.11-3.56 3.51m10.64-4.92L19 11.3l-1.42 1.4-.7-.7L6.23 22.59l-2.81-2.81 8.49-8.48-4.22-4.27L9.8 4.92l4.26 4.27 1.41-1.41z"/></svg>

<?xml version="1.0" encoding="UTF-8"?><!DOCTYPE svg PUBLIC "-//W3C//DTD SVG 1.1//EN" "http://www.w3.org/Graphics/SVG/1.1/DTD/svg11.dtd"><svg xmlns="http://www.w3.org/2000/svg" xmlns:xlink="http://www.w3.org/1999/xlink" version="1.1" id="mdi-pipe-wrench" width="24" height="24" viewBox="0 0 24 24"><path d="M16.17 5.63L14.06 7.78L11.91 5.63L16.17 1.41L19.69 4.92C20.86 6.09 20.86 8 19.69 9.19L16.17 5.63M4.83 12.7L7 14.81L10.5 11.3L8.39 9.19L4.83 12.7M15.47 7.78L19 11.3L17.58 12.7L16.88 12L6.23 22.59L3.42 19.78L11.91 11.3L7.69 7.03L9.8 4.92L14.06 9.19L15.47 7.78Z" /></svg>
